build/assets/img/stage-support/image-element-6.svg

<svg width="75" height="76" viewBox="0 0 75 76" fill="none" xmlns="http://www.w3.org/2000/svg">
<g filter="url(#filter0_di)">
<path d="M61.436 39.7495C61.6212 38.2089 61.6557 37.3541 61.7132 36.0139C61.7243 35.7158 61.8241 35.4278 61.9998 35.1868C62.1755 34.9458 62.4191 34.7627 62.6994 34.6611L67.7901 33.3218C68.1356 33.1971 68.4221 32.9476 68.5932 32.6225C68.7644 32.2973 68.8078 31.9199 68.7151 31.5643L67.0312 25.2745C66.94 24.9333 66.726 24.6379 66.4303 24.4451C66.1346 24.2522 65.778 24.1755 65.4292 24.2296L60.3878 25.0332C60.0787 25.0802 59.7627 25.0277 59.4855 24.8832C59.2082 24.7388 58.9841 24.5099 58.8454 24.2296C58.1235 22.7707 55.9192 19.1773 54.1958 17.6698C53.9471 17.4523 53.8177 17.128 53.7795 16.7998C53.7414 16.4715 54.1366 15.7778 54.308 15.4953L56.3708 12.0829C56.5605 11.7685 56.6276 11.3952 56.5592 11.0345C56.4907 10.6737 56.2915 10.351 55.9999 10.1281L50.8708 6.21082C50.577 5.9864 50.2097 5.88049 49.8416 5.91405C49.4734 5.94762 49.1313 6.11822 48.8828 6.39208L44.6283 11.0662C41.918 10.1226 39.0719 9.62816 36.2022 9.60248C35.905 9.60095 35.6154 9.5084 35.3724 9.33728C35.1294 9.16617 34.9445 8.92468 34.8428 8.64533L32.8918 3.25457C32.7648 2.89865 32.5087 2.60346 32.1744 2.42749C31.84 2.25152 31.4518 2.20761 31.0867 2.30443L24.9115 3.95971C24.5481 4.05697 24.2336 4.28517 24.0282 4.60044C23.8229 4.9157 23.7413 5.29578 23.7991 5.66757L24.5667 10.5113C24.6139 10.815 24.5653 11.1258 24.4277 11.4007C24.2902 11.6755 24.0704 11.9006 23.7991 12.0448C22.0092 12.9903 19.404 14.7545 17.8795 16.0865C17.64 16.2934 17.3412 16.4192 17.0259 16.446C16.7107 16.4728 16.395 16.3993 16.124 16.2358L11.6981 13.9468C11.3828 13.7559 11.008 13.6882 10.6459 13.7569C10.2838 13.8256 9.95976 14.0258 9.73615 14.3189L6.29457 19.7954C6.06617 20.0938 5.95821 20.4672 5.9921 20.8415C6.026 21.2158 6.19928 21.5637 6.47756 21.8161L10.5463 25.0963C10.7625 25.2932 10.9151 25.5501 10.9848 25.8342C11.0545 26.1183 11.038 26.4167 10.9376 26.6915C10.4762 27.9585 10.0567 28.5529 9.79608 29.8759C9.65462 30.5883 9.19952 32.239 9.11958 32.9483C9.08832 33.2326 8.97809 33.5025 8.80137 33.7274C8.62466 33.9523 8.38853 34.1232 8.11973 34.2207L3.37687 35.8196C3.03246 35.9441 2.83346 36.2081 2.66398 36.5329C2.4945 36.8576 2.45306 37.2342 2.54787 37.588L3.61478 43.9031C3.71257 44.2669 3.94114 44.5819 4.2567 44.7876C4.57225 44.9933 4.95258 45.0752 5.3248 45.0176L9.08283 45.0176C9.41332 44.9653 10.0202 45.0571 10.312 45.2209C10.6038 45.3847 10.8319 45.6421 10.9594 45.9516C11.9883 48.4594 13.3945 50.8525 15.1384 52.9273C15.3425 53.1684 15.4658 53.4674 15.4912 53.7823C15.5165 54.0972 15.4425 54.4122 15.2796 54.6829L13.0808 58.9912C12.8855 59.3147 12.8165 59.6988 12.887 60.07C12.9574 60.4411 13.2959 60.9793 13.5961 61.2085L18.6925 65.1008C19.0684 65.3004 19.3062 65.322 19.5439 65.3004C19.9128 65.2669 20.2556 65.0958 20.5042 64.8211L24.2989 60.7832C24.5071 60.5546 24.7801 60.395 25.0813 60.3256C25.3826 60.2562 25.6978 60.2804 25.985 60.3949C27.4201 60.9533 29.8262 61.5372 31.337 61.8352C32.1638 61.9994 32.988 62.1206 33.8087 62.2097C34.0877 62.2378 34.3531 62.3442 34.5742 62.5166C34.7954 62.689 34.9634 62.9205 35.0589 63.1843L36.7894 68.0599C36.9191 68.4168 37.1775 68.7122 37.5139 68.8882C37.8502 69.0642 38.2401 69.1081 38.6072 69.0112L44.9071 67.9289C45.2646 67.8339 45.5744 67.6101 45.7769 67.3004C45.9794 66.9908 46.0603 66.6172 46.0042 66.2514L45.1037 61.347C45.0545 61.0177 45.1163 60.6814 45.2793 60.3912C45.4424 60.101 45.6974 59.8733 46.0042 59.7442C49.3554 58.3326 52.2593 56.31 54.565 53.9741C54.799 53.7384 55.1054 53.5882 55.4351 53.5477C55.7647 53.5072 56.0983 53.5788 56.3824 53.751L60.4807 56.1431C60.7952 56.3334 61.169 56.4009 61.5302 56.3324C61.8914 56.2639 62.2146 56.0644 62.4377 55.7721L65.9047 50.3223C66.1342 50.0219 66.2428 49.6463 66.2088 49.2698C66.1748 48.8932 66.0008 48.5432 65.7212 48.2888L61.3875 44.8285C61.1826 44.6411 61.0341 44.4002 60.9587 44.133C60.8832 43.8657 60.8839 43.5827 60.9605 43.3157C61.1582 42.6241 61.2769 41.0727 61.436 39.7495ZM39.5146 50.0845C24.7742 53.751 14.7768 37.9995 23.5855 26.5475C25.4875 24.17 28.4804 22.204 30.9557 21.5547C45.4583 17.7508 55.4438 33.6799 47.1226 44.8541C45.7488 46.6706 42.8431 49.1335 39.5146 50.0845Z" fill="#0A3D76"/>
</g>
<defs>
<filter id="filter0_di" x="0.498047" y="0.25412" width="74.2648" height="74.8075" filterUnits="userSpaceOnUse" color-interpolation-filters="sRGB">
<feFlood flood-opacity="0" result="BackgroundImageFix"/>
<feColorMatrix in="SourceAlpha" type="matrix" values="0 0 0 0 0 0 0 0 0 0 0 0 0 0 0 0 0 0 127 0"/>
<feOffset dx="2" dy="2"/>
<feGaussianBlur stdDeviation="2"/>
<feColorMatrix type="matrix" values="0 0 0 0 0 0 0 0 0 0 0 0 0 0 0 0 0 0 0.15 0"/>
<feBlend mode="normal" in2="BackgroundImageFix" result="effect1_dropShadow"/>
<feBlend mode="normal" in="SourceGraphic" in2="effect1_dropShadow" result="shape"/>
<feColorMatrix in="SourceAlpha" type="matrix" values="0 0 0 0 0 0 0 0 0 0 0 0 0 0 0 0 0 0 127 0" result="hardAlpha"/>
<feOffset dx="-2" dy="-2"/>
<feGaussianBlur stdDeviation="2"/>
<feComposite in2="hardAlpha" operator="arithmetic" k2="-1" k3="1"/>
<feColorMatrix type="matrix" values="0 0 0 0 0 0 0 0 0 0 0 0 0 0 0 0 0 0 0.2 0"/>
<feBlend mode="normal" in2="shape" result="effect2_innerShadow"/>
</filter>
</defs>
</svg>

<svg width="75" height="76" fill="none" xmlns="http://www.w3.org/2000/svg"><g filter="url(#filter0_di)"><path d="M61.436 39.75c.185-1.541.22-2.396.277-3.736a1.499 1.499 0 01.986-1.353l5.091-1.34a1.473 1.473 0 00.925-1.757l-1.684-6.29a1.431 1.431 0 00-1.602-1.044l-5.041.803a1.473 1.473 0 01-1.543-.803c-.721-1.46-2.926-5.053-4.65-6.56-.248-.218-.377-.542-.416-.87-.038-.329.358-1.022.529-1.305l2.063-3.412A1.492 1.492 0 0056 10.128l-5.13-3.917a1.475 1.475 0 00-1.987.181l-4.255 4.674a26.344 26.344 0 00-8.426-1.464 1.454 1.454 0 01-1.36-.957l-1.95-5.39a1.507 1.507 0 00-1.805-.95L24.912 3.96a1.525 1.525 0 00-1.113 1.708l.768 4.843a1.48 1.48 0 01-.768 1.534c-1.79.945-4.395 2.71-5.92 4.042a1.5 1.5 0 01-1.755.149l-4.426-2.29a1.494 1.494 0 00-1.962.373l-3.441 5.476a1.499 1.499 0 00.183 2.021l4.068 3.28a1.472 1.472 0 01.392 1.596c-.462 1.267-.881 1.86-1.142 3.184-.141.712-.596 2.363-.676 3.072a1.532 1.532 0 01-1 1.273L3.377 35.82c-.345.124-.544.388-.713.713-.17.325-.21.701-.116 1.055l1.067 6.315a1.53 1.53 0 001.71 1.115h3.758c.33-.053.937.04 1.229.203.292.164.52.421.647.73 1.03 2.508 2.436 4.901 4.18 6.976a1.511 1.511 0 01.14 1.756l-2.198 4.308a1.534 1.534 0 00-.194 1.079c.07.371.409.91.71 1.139l5.095 3.892c.376.2.614.221.852.2.369-.034.712-.205.96-.48l3.795-4.038a1.52 1.52 0 011.686-.388c1.435.558 3.841 1.142 5.352 1.44a28.46 28.46 0 002.472.375 1.487 1.487 0 011.25.974l1.73 4.876a1.521 1.521 0 001.818.951l6.3-1.082a1.5 1.5 0 001.097-1.678l-.9-4.904a1.5 1.5 0 01.9-1.603 26.537 26.537 0 008.561-5.77 1.48 1.48 0 011.817-.223l4.099 2.392a1.49 1.49 0 001.957-.37l3.467-5.45a1.51 1.51 0 00-.184-2.034l-4.334-3.46a1.491 1.491 0 01-.426-1.513c.197-.692.316-2.243.475-3.567zM39.515 50.084C24.775 53.752 14.777 38 23.585 26.547c1.902-2.377 4.895-4.343 7.37-4.992 14.503-3.804 24.489 12.125 16.168 23.3-1.374 1.816-4.28 4.279-7.608 5.23z" fill="#0A3D76"/></g><defs><filter id="filter0_di" x=".498" y=".254" width="74.265" height="74.808" filterUnits="userSpaceOnUse" color-interpolation-filters="sRGB"><feFlood flood-opacity="0" result="BackgroundImageFix"/><feColorMatrix in="SourceAlpha" values="0 0 0 0 0 0 0 0 0 0 0 0 0 0 0 0 0 0 127 0"/><feOffset dx="2" dy="2"/><feGaussianBlur stdDeviation="2"/><feColorMatrix values="0 0 0 0 0 0 0 0 0 0 0 0 0 0 0 0 0 0 0.15 0"/><feBlend in2="BackgroundImageFix" result="effect1_dropShadow"/><feBlend in="SourceGraphic" in2="effect1_dropShadow" result="shape"/><feColorMatrix in="SourceAlpha" values="0 0 0 0 0 0 0 0 0 0 0 0 0 0 0 0 0 0 127 0" result="hardAlpha"/><feOffset dx="-2" dy="-2"/><feGaussianBlur stdDeviation="2"/><feComposite in2="hardAlpha" operator="arithmetic" k2="-1" k3="1"/><feColorMatrix values="0 0 0 0 0 0 0 0 0 0 0 0 0 0 0 0 0 0 0.2 0"/><feBlend in2="shape" result="effect2_innerShadow"/></filter></defs></svg>
